assets/sonr-icons/hns-fill.svg

<svg xmlns="http://www.w3.org/2000/svg" width="24" height="24" fill="none"><path fill="currentColor" d="M22 12c0-5.523-4.477-10-10-10S2 6.478 2 12s4.477 10 10 10 10-4.477 10-10m-4.733-2.52-.941-1.601 1.823.001c.049 0 .106.031.132.073l.355.56c.213.336.467.738.614.967zm-3.372 9.694c-.044.076-.101.076-.12.076h-.745l-1.12-.001 2.897-4.979a.26.26 0 0 0-.107-.363.3.3 0 0 0-.135-.034l-4.937.006-.982-1.627h7.196l.011-.001.048-.006q.018-.004.034-.011l.018-.007a.27.27 0 0 0 .132-.115l1.185-2.099h1.958zm-2.467-.189-.234-.368c-.299-.473-.683-1.079-.727-1.146-.014-.023-.021-.077.01-.13l1.7-2.932 1.915-.002zm-3.265-3.116-.952-1.619.959-1.721.962 1.595c-.298.539-.766 1.379-.969 1.745m-1.277.251H5.849a.17.17 0 0 1-.131-.073l-.31-.489-.659-1.039h1.982l.941 1.601h-.788zm3.219-11.293c.044-.077.101-.077.119-.077h1.873L9.192 9.729l-.006.014q-.007.012-.011.026l-.008.026-.006.024-.003.03-.002.014.002.01q0 .014.003.029.001.012.005.024l.008.025.01.024.012.022.014.022.017.02.018.019.02.016.024.016.009.006q.005.001.01.005a.2.2 0 0 0 .045.017l.017.005q.03.008.063.008h.126l4.813-.006c.128.212.365.611.568.95l.385.646H8.163l-.01.002a.28.28 0 0 0-.241.14l-1.186 2.128H4.772l5.332-9.16zm2.47.195.174.274.782 1.234c.014.022.021.077-.01.13l-1.7 2.93-1.914.002 2.667-4.571zm3.26 3.108.952 1.619-.971 1.718-.395-.661-.571-.955.984-1.722z"/></svg>

<svg xmlns="http://www.w3.org/2000/svg" width="24" height="24" fill="none" viewBox="0 0 24 24"><path fill="#000" d="M22 12C22 6.477 17.523 2 12 2C6.477 2 2 6.478 2 12C2 17.523 6.477 22 12 22C17.523 22 22 17.523 22 12ZM17.267 9.48L16.326 7.879L18.149 7.88C18.198 7.88 18.255 7.911 18.281 7.953C18.31 7.999 18.458 8.233 18.636 8.513C18.849 8.849 19.103 9.251 19.25 9.48H17.267ZM13.895 19.174C13.851 19.25 13.794 19.25 13.775 19.25H13.03C12.635 19.25 12.181 19.249 11.91 19.249L14.807 14.27C14.883 14.142 14.834 13.978 14.7 13.907C14.659 13.884 14.612 13.873 14.565 13.873L9.628 13.879L8.646 12.252H15.842C15.847 12.252 15.85 12.251 15.853 12.251C15.869 12.25 15.885 12.248 15.901 12.245C15.912 12.242 15.925 12.239 15.935 12.234C15.941 12.232 15.947 12.229 15.953 12.227C16.009 12.204 16.055 12.164 16.085 12.112L17.27 10.013H19.228L13.895 19.174ZM11.428 18.985C11.365 18.886 11.283 18.756 11.194 18.617C10.895 18.144 10.511 17.538 10.467 17.471C10.453 17.448 10.446 17.394 10.477 17.341C10.547 17.222 11.857 14.961 12.177 14.409L14.092 14.407L11.428 18.985ZM8.163 15.869L7.211 14.25L8.17 12.529L9.132 14.124C8.834 14.663 8.366 15.503 8.163 15.869ZM6.886 16.12C6.401 16.12 5.919 16.12 5.849 16.12C5.802 16.12 5.745 16.088 5.718 16.047L5.408 15.558C5.187 15.209 4.905 14.765 4.749 14.519H6.731L7.672 16.12C7.466 16.12 7.176 16.12 6.884 16.12H6.886ZM10.105 4.827C10.149 4.75 10.206 4.75 10.224 4.75H12.097L9.192 9.729C9.19 9.734 9.188 9.737 9.186 9.743C9.181 9.751 9.178 9.76 9.175 9.769C9.172 9.778 9.169 9.786 9.167 9.795C9.165 9.804 9.162 9.811 9.161 9.819C9.159 9.829 9.158 9.838 9.158 9.849C9.158 9.854 9.156 9.857 9.156 9.863C9.156 9.867 9.157 9.869 9.158 9.873C9.158 9.883 9.16 9.892 9.161 9.902C9.162 9.91 9.163 9.918 9.166 9.926C9.169 9.934 9.171 9.943 9.174 9.951C9.177 9.959 9.18 9.967 9.184 9.975C9.188 9.983 9.192 9.99 9.196 9.997C9.2 10.005 9.205 10.011 9.21 10.019C9.215 10.027 9.221 10.033 9.227 10.039C9.233 10.045 9.238 10.052 9.245 10.058C9.252 10.064 9.258 10.068 9.265 10.074C9.273 10.079 9.281 10.085 9.289 10.09C9.292 10.092 9.295 10.095 9.298 10.096C9.301 10.097 9.305 10.098 9.308 10.101C9.322 10.108 9.338 10.115 9.353 10.118C9.359 10.12 9.364 10.122 9.37 10.123C9.39 10.128 9.411 10.131 9.433 10.131H9.559L14.372 10.125C14.5 10.337 14.737 10.736 14.94 11.075C15.095 11.336 15.224 11.551 15.325 11.721H8.163C8.16 11.721 8.157 11.722 8.153 11.723C8.052 11.724 7.96 11.778 7.912 11.863L6.726 13.991H4.772C5.626 12.523 10.047 4.927 10.104 4.831L10.105 4.827ZM12.575 5.022L12.749 5.296C13.054 5.778 13.485 6.459 13.531 6.53C13.545 6.552 13.552 6.607 13.521 6.66L11.821 9.59L9.907 9.592L12.574 5.021L12.575 5.022ZM15.835 8.13L16.787 9.749L15.816 11.467C15.7 11.274 15.557 11.033 15.421 10.806C15.154 10.359 14.96 10.034 14.85 9.851C15.058 9.489 15.605 8.529 15.834 8.129L15.835 8.13Z"/></svg>
